X:1
T:Shine On, O Star!
T:Ira David Sankey
T:Shine On, O Star!
T:Public Domain
T:Public Domain
C:Ira David Sankey
Z:Public Domain
%%score ( 1 2 ) ( 3 4 )
L:1/8
M:6/8
K:Eb
V:1 treble 
V:2 treble 
V:3 bass 
V:4 bass 
V:1
 [EB] | [EB]2 [EB] (cd)[Ae] | [Ge]3 [EB]2 [EG] | [GB]2 [Ac] [GB]2 [DF] | [EG]3- [EG]2 [EB] | %5
w: 1.~Shine|on, O Star * of|ty, Thou Christ|en- throned a- bove;|Re- * flect-|
w: 2.~Shine|on, O Star * of|ry, We lift|our eyes to Thee;|Be- * yond|
w: 3.~Shine|on, O Star * un-|ing, And guide|our pil- grim way,|Un- * til|
w: 4.~And|when, with Thy * re-|ones, We reach|the heav’n- ly shore,|May * we|
 [Ec]2 [Ec] (cd)[Ae] | [Ge]3 [EB]2 [Ec] | [EB]2 E [EG]2 [DF] | E3- E2 ||"^Refrain" [GB] | %10
w: ing in Thy * bright-|Our Fa- ther’s|look of love. *|||
w: the clouds that * ga-|Thy ra- diant|light we see. Shine|shine *|shine~on,|
w: we see the * dawn-|Of Heav’n’s e-|ter- nal day. *|||
w: with Thee in * glo-|Shine on for-|ev- er- more. *|||
 [Ac]3- [Ac]2 [ce] | G2 E [GB]2 [EB] | [Ad]2 [Gd] [Ad][Ac][Fd] | (GE)A [Ge]2 [GB] | %14
w: ||||
w: Thou * bright|and beau- ti- ful|shine~on. Shine on, shine on,|shine~on, * Thou bright and|
w: ||||
w: ||||
 [Ac]3- [Ac]2 [ce] | G2 E [GB]2 [GB] | [Fd]2 [Fd] [Fd][Ge][Af] | (GE)A [Ge]2 |] %18
w: ||||
w: ti- * ful|Star, shine~on. * *|||
w: ||||
w: ||||
V:2
 x | x3 E2 x | x6 | x6 | x6 | x3 E2 x | x6 | x2 E x3 | E3- E2 || x | x6 | B3- x3 | x6 | e3- x3 | %14
w: |beau-||||ness,|||||||||
w: |glo-||||ther,||on,|on, *|||Star,||beau-|
w: |chang-||||ing|||||||||
w: |deemed||||ry|||||||||
 x6 | B3- x3 | x6 | e3- x2 |] %18
w: ||||
w: ||||
w: ||||
w: ||||
V:3
 [E,G,] | [E,G,]2 [E,G,] (A,B,)[A,,C] | [E,B,]3 [E,G,]2 [E,B,] | [B,,E]2 [B,,E] [B,,D]2 [B,,B,] | %4
 [E,B,]3- [E,B,]2 [E,G,] | [A,,A,]2 [A,,A,] (A,B,)[A,,C] | [E,B,]3 [E,G,]2 A, | %7
 [G,B,]2 [A,C] B,2 [B,,A,] | [E,G,]3- [E,G,]2 || z | z2 [A,,E] [A,,E]2 z | %11
 z2 [E,G,] [E,B,]2 [E,G,] | [B,,F,]2 [B,,B,] [B,,B,][B,,B,][B,,B,] | (B,G,)[E,C] [E,B,]2 z | %14
 z2 [A,,E] [A,,E]2 z | z2 [E,G,] [E,B,]2 [E,B,] | [B,,B,]2 [B,,B,] [B,,B,][B,,B,][B,,B,] | %17
 (B,G,)[E,C] [E,B,]2 |] %18
V:4
 x | x3 A,,2 x | x6 | x6 | x6 | x3 A,,2 x | x5 A, | x3 B,2 x | x5 || x | x6 | x6 | x6 | E,2 x4 | %14
 x6 | x6 | x6 | E,2 x3 |] %18

